X:7206
T:The Pigeon On The Gate (Em)
O:england
R:Reel
S:Paddy Canny, Clare (fiddle)
D:Home tape of unknown provenance
N:As played
M:4/4
K:D
|: BE(3.E.E.E BEdE | cE(3.E.E.E dBAF | D2(3FED AD(3.F.F.D | EFGA BAFA |
BE(3.E.E.E BEdE | cE(3.E.E.E dBAF | DEFA dBec | dBAF EFGA :|
~B2-Be (3.e.e.f ed | cdef gfed | BAFA dcdB | AF~F2 DEFA |
~B2ed efed | cdef g2fg | (3agf ge fdec | dBAF EFGA |
~B2-Be (3.e.e.f ed | cdef gfed | BAFA dcdB | AF~F2 DEFA |
~B2ed efed | cdef g2{a}gf | gbag fagf | egfe dcBA ||


